X:1
T:Title
%%score { ( 1 3 ) | ( 2 4 ) }
L:1/8
Q:1/4=212
M:2/2
K:Ab
V:1 treble nm="Grand Piano"
V:3 treble 
V:2 bass 
V:4 bass 
V:1
 [CEA]4 [DFB]4 | [CEA]4 [B,EG]4 | z4 .c4 | A4 G4 | F4 E4 | E4 A2 c2 | [=DB]4 [B,DF]4 | [B,EG]8 | %8
w: H.~J.~E.~Holmes *||||||||
 [B,EG]4 [A,EA]4 | [Ed]4 [Ec]4 | [=Ec]4 z2 c2 | [CGB]4 [CFA]4 | [B,F]4 [DFB]4 | z4 A4 | %14
w: ||||||
 [EAc]4 [DGB]4 | [CEA]8 | [=Ec]6 [EG]2 | [GB]4 A4 | e6 d2 | c4 [FB]2 F2 | A8 | B8 | [CA]8 |] %23
w: |||||||||
V:2
 A,4 D,4 | E,4 E,2 D,2 | C,4 B,,4 | [E,CE]4 [E,B,E]4 | [F,A,D]4 [G,B,D]4 | z4 .C4 | B,4 B,,4 | %7
 E,8 | D,4 C,4 | [B,,G,]4 [A,,A,]4 | [C,G,]4 [=E,C]4 | F,4 F,4 | D,4 B,,4 | E,4 z2 E2 | E,4 E,4 | %15
 A,8 | [C,C]6 [C,C]2 | [F,C]4 [F,CF]4 | [G,B,E]6 [G,B,E]2 | [A,CE]4 [D,D]4 | [E,CE]8 | [E,G,D]8 | %22
 [A,,A,]8 |] %23
V:3
 x8 | x8 | [A,EA]4 [DF]2- [DFB]2 | x8 | x8 | x8 | x8 | x8 | x8 | x8 | z4 G4 | x8 | x8 | %13
 [CEA]4 [Fd]2 c2 | x8 | x8 | x8 | x8 | x8 | x8 | x8 | x8 | x8 |] %23
V:4
 x8 | x8 | x8 | x8 | x8 | [A,C]4 [F,E]2- [F,A,E]2 | x8 | x8 | x8 | x8 | x8 | x8 | x8 | z4 E,4 | %14
 x8 | x8 | x8 | x8 | x8 | x8 | x8 | x8 | x8 |] %23

